X: 20444
T: John Joe Gardiner's
R: jig
M: 6/8
K: Gmajor
"A"
B2B BAB|GDG G2A|Bde dBG|B3 AGA|
B2B BAB|GDG G2A|Bde dBA|AGF G (3def|
gdB BAB|GEG G2A|Bde dBG|B3 AGA|
B2B BAB|GEG G2A|Bde dBA|AGF G (3def||
"B"
g2g age|dBd dBd|gbg aga|age ezf|
gaf gfe|ded def|g2 e fdB|ABd efg||
"A"
edG B2A|GDG G2G|Bde dBG|B3 AGA|
B2B BAB|GEG G2A|Bde dBA|AGF G (3def|
gdB BAB|GEG G2A|Bde dBG|B3 AGA|
B2B BAB|GEG G2A|Bde dBA|AGF G (3def||

